!!!COM: Palestrina, Giovanni Perluigi da
!!!OPR: Missa In duplicibus minoribus (I)
!!!OMD: Gloria
!!!OTL: Amen
**kern	**kern	**kern	**kern	**kern
*Ibass	*Itenor	*Itenor	*Icalto	*Icant
!Bassus	!Tenor 2	!Tenor 1	!Altus	!Cantus
*clefF4	*clefGv2	*clefGv2	*clefG2	*clefG2
*k[]	*k[]	*k[]	*k[]	*k[]
*E:phr	*E:phr	*E:phr	*E:phr	*E:phr
*M4/2	*M4/2	*M4/2	*M4/2	*M4/2
=127	=127	=127	=127	=127
0r	1A	0r	1r	0r
.	2.c	.	1A	.
.	4B	.	.	.
=128	=128	=128	=128	=128
0r	4A	0r	1c	1e
.	4G	.	.	.
.	2A	.	.	.
.	2G	.	2B	1g
.	2E	.	2c	.
=129	=129	=129	=129	=129
0r	2D	1r	2d	2f
.	2E	.	4c	2g
.	.	.	4B	.
.	1F	1A	4A	1a
.	.	.	4B	.
.	.	.	4c	.
.	.	.	4d	.
=130	=130	=130	=130	=130
0r	1C	1c	2.e	0g
.	.	.	4c	.
.	1r	2B	2d	.
.	.	2c	[2e	.
=131	=131	=131	=131	=131
0r	1D	1d	2e]	1f
.	.	.	2d	.
.	1A	1c	[1e	2.e
.	.	.	.	4f
=132	=132	=132	=132	=132
1E	2B	2B	1e]	0g
.	1c	2e	.	.
1G	.	[1d	1r	.
.	2B	.	.	.
=133	=133	=133	=133	=133
2F	2A	1d]	2r	2a
2G	2B	.	2d	4g
.	.	.	.	4f
1A	1c	2r	2c	2e
.	.	2c	2A	[2f
=134	=134	=134	=134	=134
1G	1B	2d	2B	2f]
.	.	2B	2G	1e
1F	1r	2c	1A	.
.	.	2A	.	2d
=135	=135	=135	=135	=135
0E	1r	1B	1e	2.g
.	.	.	.	4f
.	1B	1G	1g	1e
=136	=136	=136	=136	=136
2D	1d	1.A	2f	1.a
2E	.	.	2g	.
1F	2c	.	1a	.
.	2d	2F	.	2b
=137	=137	=137	=137	=137
1C	1e	2G	1g	1cc
.	.	2E	.	.
1D	1d	2.F	1f	1a
.	.	4G	.	.
=138	=138	=138	=138	=138
0AA	2.c	0A	0e	0cc
.	4B	.	.	.
.	1A	.	.	.
=139	=139	=139	=139	=139
[0E	[0B	[0G#	[0e	[0b
=140	=140	=140	=140	=140
0E]	0B]	0G#]	0e]	0b]
==	==	==	==	==
*-	*-	*-	*-	*-
!!!CDT: 1525/^1526/-1594/2/2
!!!OCY: Italia
!!!AGN: Mass (Paraphrase)
!!!AST: renaissance, vocal
!!!ASW: Gregorian Mass
!!!PWK: Masses, Book Mantuan I
!!!RNB: Cadence finals: A
!!!YOR: Le Opere Complete, v. 18, p. 42
!!!YOO: Rome, Italy: Fratelli Scalera
!!!END: 1992//
!!!EED: John Miller
!!!YEC: Copyright 2000, John Miller
!!!YEN: United States of America
!!!YEM: Rights to all derivative electronic formats reserved.
!!!YEM: Refer to licensing agreement for further details.
!!!YEM: This file must be accompanied by the licensing agreement.
!!!YEM: A copy of the licensing agreement may be found at http://www.music-cog.ohio-state.edu/HumdrumDatabases/Palestrina/license.txt
!!!EMD: converted to Humdrum by Bret Aarden
